assets/images/img-guide-pagination.svg

<svg width="96" height="96" viewBox="0 0 96 96" fill="none" xmlns="http://www.w3.org/2000/svg">
<g clip-path="url(#clip0_854_54209)">
<rect width="96" height="96" fill="#464C59"/>
<rect width="540" height="56" transform="translate(15 20)" fill="white"/>
<g clip-path="url(#clip1_854_54209)">
<path fill-rule="evenodd" clip-rule="evenodd" d="M38 48L44.25 41.75L45.125 42.625L39.75 48L45.125 53.375L44.25 54.25L38 48Z" fill="#C8C8C8"/>
</g>
<rect x="69" y="30" width="36" height="36" rx="7" fill="#0065D1"/>
<path d="M86.8739 53V43.304L85.0659 43.704V42.776L87.3219 41.8H88.2339V53H86.8739Z" fill="white"/>
</g>
<defs>
<clipPath id="clip0_854_54209">
<rect width="96" height="96" fill="white"/>
</clipPath>
<clipPath id="clip1_854_54209">
<rect width="20" height="20" fill="white" transform="translate(33 38)"/>
</clipPath>
</defs>
</svg>

<svg xmlns="http://www.w3.org/2000/svg" width="96" height="96" fill="none" viewBox="0 0 96 96"><g clip-path="url(#a)"><path fill="#464C59" d="M0 0h96v96H0z"/><path fill="#fff" d="M15 20h540v56H15z"/><g clip-path="url(#b)"><path fill="#C8C8C8" fill-rule="evenodd" d="m38 48 6.25-6.25.875.875L39.75 48l5.375 5.375-.875.875z" clip-rule="evenodd"/></g><rect width="36" height="36" x="69" y="30" fill="#0065D1" rx="7"/><path fill="#fff" d="M86.874 53v-9.696l-1.808.4v-.928l2.256-.976h.912V53z"/></g><defs><clipPath id="a"><path fill="#fff" d="M0 0h96v96H0z"/></clipPath><clipPath id="b"><path fill="#fff" d="M33 38h20v20H33z"/></clipPath></defs></svg>
